X: 30653
T: Oonagh
R: jig
M: 6/8
K: Eminor
F|G2G (G2A)|(G3 F2)E|(D2E) (F2G)|(A2G F2)B|
(B2A) (G2F)|E3-E2 ^d|(e2B) (B2A)|(G2F) E2||
^d|(e3 E2)^d|(e3 E2)^d|(e2g f2)e|(d2^c) B2^c|
(d3 D2)^c|(d3 D2)^c|(d2=F e2)d|(c2^B A2A)|
(e2 ^d .e2)B|(^c2=B) .c2A|(e2g f2e)|(d2^c =B2)=A|
G2.G (GA).G|^F2 F F2 ^d|(e2B) (B2A)|(G2F).E2||

